X:585
%%etbk:tnset id:318,pos:1,rep:3x,ant:
%%etbk:pldat 2015-11-18T17:31,2015-09-10T16:08,2015-09-09T16:23,2015-09-08T18:41,2015-09-03T16:03,2015-09-02T16:07,2015-09-01T16:07,2015-08-31T18:30,2015-08-30T14:22,2015-08-28T19:03,2015-08-27T18:38,2015-08-26T15:35,2015-08-06T17:15,2015-08-05T15:46,2015-08-04T15:57,2015-08-03T18:02,2015-08-02T11:07,2015-08-01T15:39,2015-07-31T17:41,2015-07-30T18:30,2015-07-29T16:09,2015-07-27T18:56,2015-06-26T17:01,2015-06-17T16:18,2015-06-16T16:02,2015-04-16T18:53,2015-04-15T16:18,2015-04-13T18:37,2015-04-12T10:39,2015-04-11T14:17,2015-03-19T18:44,2015-03-18T17:12,2015-03-16T18:57,2015-03-15T14:36,2015-03-11T16:10,2015-03-04T16:21,2015-02-22T15:29,2015-02-21T16:48,2015-02-18T15:59,2015-02-16T18:08,2015-02-01T14:00,2015-01-14T17:11,2015-01-10T14:56,2015-01-08T18:35,2015-01-06T19:05,2014-12-27T15:19,2014-10-16T18:57,2014-10-14T18:20,2014-10-11T13:14,2014-09-16T17:49,2014-09-13T13:17,2014-08-14T18:58,2014-08-13T18:46,2014-08-12T18:52,2014-08-11T19:02,2014-08-10T13:46,2014-08-06T19:18,2014-08-05T19:18,2014-08-04T19:01,2014-08-03T15:57,2014-08-02T15:08,2014-07-30T19:30,2014-07-29T18:52,2014-07-28T19:21,2014-07-26T15:36,2014-07-25T19:04,2014-07-24T19:32,2014-07-23T18:49,2014-07-22T18:58,2014-07-20T14:27,2014-07-16T18:19,2014-07-04T11:30,2014-07-02T12:04,2014-06-30T11:24,2014-06-20T15:53,2014-06-19T18:47,2014-06-17T18:35,2014-06-15T11:35,2014-06-13T16:10,2014-06-12T18:53,2014-06-09T14:45,2014-06-05T18:27,2014-06-03T16:43,2014-05-28T14:50
T: Tam Lin Rastafari (dm)
Z: Piano Box Version by Martin Fleischmann
H: Created 2014-05-28 /  Last Modified 2015-08-08
R: reel
%%score (M1) (M2)
V:M1  clef=treble  
V:M2  clef=treble    
M: 4/4
L: 1/8
K: Dmin
[V:M1]"dm"z2[D2FA]z2[D2FA]| "gm"z2[D2G]z2[D2G]| "C"z2[C2E]z2[C2E]| "am"DEEG GAAG||"dm"z2[D2FA]z2[D2FA]| "gm"z2[D2G]z2[D2G]| "C"z2[C2E]z2[C2E]| "am"E2ED EFED||
[V:M2]"dm"ADD2 ADD2| "gm"FGGF G2 G2| "C"ECC2 ECC2|"am"z2[E2A]z2[E2A]|"dm"ADD2 ADD2| "gm"FGGF G2 G2| "C"ECC2 ECC2|"am"z2[E2A]z2[E2A]|
[V:M1]"dm"z2[D2FA]z2[D2FA]| "gm"z2[D2G]z2[D2G]| "C"z2[C2E]z2[C2E]| "am"A3G AGFE||"dm"z2[D2FA]z2[D2FA]| "gm"z2[D2G]z2[D2G]| "C"z2[C2E]z2[C2E]| "am"A4-AAGA||
[V:M2]"dm"ADD2 ADD2| "gm"FGGF G2 G2| "C"ECC2 ECC2|"am"z2[E2A]z2[E2A]|"dm"ADD2 ADD2| "gm"FGGF G2 G2| "C"ECC2 ECC2|"am"z2[E2A]z2[E2A]|
P:B
[V:M1]|:"dm"!5!d!2!A!1!A!2!A !1!F!2!A!1!D!2!A| dAAA FADA| "C"!5!c!2!G!1!G!2!G !1!E!2!G!1!G!2!G| !5!c!2!G!1!G!1!G !3!cdec|
[V:M2]|:"dm"ADDD z2D2| ADDD z2D2| "C"GCCC z2C2| z2C2z2C2|
[V:M1]"dm"!5!d!2!A!1!A!2!A !1!F!2!A!1!D!2!A| dAAA FADz| "gm"!2!B,3A, !2!B,CD!5!E| "am"!5!FD!4!EC "dm"!1!A,!3!D!1!D2:|
[V:M2]"dm"ADDD z2D2| zDDD z2D2| "gm"z2[D2G]z2[D2G]| "am"z2[E2A]"dm"z2[D2FA]:|


